packages/foundations/assets/icons/functional/images/logos/s_bahn_16_inverted.svg

<svg width="16" height="16" viewBox="0 0 16 16" fill="none" xmlns="http://www.w3.org/2000/svg">
<g clip-path="url(#clip0_2213_4657)">
<path fill-rule="evenodd" clip-rule="evenodd" d="M7.68954 3.50003C6.19114 3.50003 4.52234 4.45203 4.52234 6.22004C4.52234 7.79444 5.59914 8.37043 6.74874 8.73523C7.24074 8.88803 7.52474 8.95764 8.18634 9.15124C8.91914 9.38644 9.46794 9.68564 9.46794 10.3376C9.46794 10.8552 8.80874 11.3408 7.98954 11.3408C6.71754 11.3408 5.35194 10.568 4.59194 9.41684V11.2168C5.36154 11.9304 6.77034 12.5 7.98954 12.5C10.1775 12.5 11.4775 10.8864 11.4775 9.50004C11.4775 7.97284 10.4839 7.41523 9.38074 7.08403C8.94193 6.96665 8.5019 6.85385 8.06074 6.74564C7.16794 6.51604 6.45034 6.23364 6.45034 5.44484C6.45034 4.94884 6.89034 4.52483 7.65914 4.52483C8.93914 4.52483 10.1743 5.22643 10.9471 6.13763V4.63843C10.0246 3.89607 8.87369 3.49407 7.68954 3.50003Z" fill="#1A1C1F"/>
</g>
<defs>
<clipPath id="clip0_2213_4657">
<rect width="16" height="16" fill="white"/>
</clipPath>
</defs>
</svg>

<svg xmlns="http://www.w3.org/2000/svg" width="16" height="16" fill="none"><g clip-path="url(#a)"><path fill="#1A1C1F" fill-rule="evenodd" d="M7.69 3.5c-1.499 0-3.168.952-3.168 2.72 0 1.574 1.077 2.15 2.227 2.515.492.153.776.223 1.437.416.733.235 1.282.535 1.282 1.187 0 .517-.66 1.003-1.478 1.003-1.272 0-2.638-.773-3.398-1.924v1.8c.77.713 2.178 1.283 3.398 1.283 2.188 0 3.487-1.614 3.487-3 0-1.527-.993-2.085-2.096-2.416q-.66-.176-1.32-.338c-.893-.23-1.61-.512-1.61-1.301 0-.496.44-.92 1.208-.92 1.28 0 2.515.701 3.288 1.613v-1.5A5.16 5.16 0 0 0 7.69 3.5" clip-rule="evenodd"/></g><defs><clipPath id="a"><path fill="#fff" d="M0 0h16v16H0z"/></clipPath></defs></svg>
